public/static/img/crypto/RVN.svg

<svg width="32" height="32" viewBox="0 0 32 32" fill="none" xmlns="http://www.w3.org/2000/svg">
<g clip-path="url(#clip0_696_7380)">
<path d="M16 32C24.8365 32 32 24.8365 32 16C32 7.16349 24.8365 0 16 0C7.16349 0 0 7.16349 0 16C0 24.8365 7.16349 32 16 32Z" fill="#384182"/>
<path d="M9.50008 27L13.118 10.2111L15.1479 22.8111L9.49994 27H9.50008ZM13.1881 10.1151L18.685 22.824L15.242 22.7641L13.1881 10.1139V10.1151ZM13.27 10.0191L20.47 11.042L18.802 22.824L13.27 10.0191ZM18.93 22.6431L20.553 11.15L21.615 12.498L18.93 22.6431ZM20.447 10.9329L13.421 9.93396L19.7471 7.85193L20.447 10.9329ZM13.3871 9.82604L17.693 6.84102L19.7471 7.744L13.3871 9.82604ZM13.2809 9.78996L14.111 8.20102L17.623 6.79302L13.281 9.78996H13.2809ZM14.111 8.13004L14.5071 6.89004L17.401 6.79302L14.111 8.12902V8.13004ZM14.4839 6.79302L15.417 5.79404L17.425 6.69702L14.4839 6.79302ZM15.4759 5.73411L16.8759 5.048L18.686 7.16596L15.4759 5.73396V5.73411ZM17.0751 5.13193L19.1639 6.04698L18.79 7.17804L17.0751 5.13207V5.13193ZM18.8601 7.21396L19.245 6.05905L19.712 7.648L18.8601 7.21396ZM16.9231 5H18.4519L19.209 5.84204C19.2142 5.84814 19.2178 5.85542 19.2194 5.86324C19.2211 5.87106 19.2208 5.87917 19.2185 5.88684C19.2163 5.89451 19.2122 5.9015 19.2065 5.90719C19.2009 5.91287 19.194 5.91708 19.1863 5.91942C19.176 5.92244 19.165 5.92193 19.1551 5.91796L16.9231 5ZM19.3391 5.96291L22.449 6.83098C22.4647 6.83485 22.4786 6.84385 22.4885 6.85655C22.4985 6.86924 22.5039 6.8849 22.5039 6.90102C22.5039 6.91714 22.4985 6.9328 22.4885 6.94549C22.4786 6.95819 22.4647 6.96718 22.449 6.97105L19.806 7.696L19.3391 5.96305V5.96291Z" fill="white"/>
</g>
<defs>
<clipPath id="clip0_696_7380">
<rect width="32" height="32" fill="white"/>
</clipPath>
</defs>
</svg>

<svg width="32" height="32" fill="none" xmlns="http://www.w3.org/2000/svg"><g clip-path="url(#a)"><path d="M16 32c8.837 0 16-7.163 16-16S24.837 0 16 0 0 7.163 0 16s7.163 16 16 16Z" fill="#384182"/><path d="m9.5 27 3.618-16.789 2.03 12.6L9.5 27Zm3.688-16.885 5.497 12.709-3.443-.06-2.054-12.65v.001Zm.082-.096 7.2 1.023-1.668 11.782-5.532-12.805Zm5.66 12.624 1.623-11.493 1.062 1.348-2.685 10.145Zm1.517-11.71-7.026-.999 6.326-2.082.7 3.08Zm-7.06-1.107 4.306-2.985 2.054.903-6.36 2.082Zm-.106-.036.83-1.589 3.512-1.408-4.342 2.997Zm.83-1.66.396-1.24 2.894-.097-3.29 1.336v.001Zm.373-1.337.933-.999 2.008.903-2.941.096Zm.992-1.059 1.4-.686 1.81 2.118-3.21-1.432Zm1.6-.602 2.088.915-.374 1.131-1.715-2.046Zm1.784 2.082.385-1.155.467 1.589-.852-.434ZM16.923 5h1.529l.757.842a.047.047 0 0 1 .01.045.048.048 0 0 1-.032.033.048.048 0 0 1-.032-.002L16.923 5Zm2.416.963 3.11.868a.072.072 0 0 1 .04.114.072.072 0 0 1-.04.026l-2.643.725-.467-1.733Z" fill="#fff"/></g><defs><clipPath id="a"><path fill="#fff" d="M0 0h32v32H0z"/></clipPath></defs></svg>
